packages/web/src/assets/img/neherlab.svg

<svg xmlns="http://www.w3.org/2000/svg" viewBox="0 0 354.325 354.325"><path d="M271.871 83.115l28.387-11.401" fill="#231f20" stroke="#cd5c5c" stroke-width="8.75" stroke-linecap="round" stroke-miterlimit="10"/><path d="M262.911 306.125c-.232.27-9.406 7.882-22.362 15.762m-.327.191l7.635 13.27" fill="none" stroke="#6d6e70" stroke-width="6.25" stroke-linecap="round" stroke-linejoin="round" stroke-miterlimit="10"/><path d="M236.296 130.905l26.995-19.264m.429-.707l17.658-60.26m-17.658 60.26l25.11 2.5" fill="#231f20" stroke="#cd5c5c" stroke-width="8.75" stroke-linecap="round" stroke-miterlimit="10"/><path d="M308.295 83.115l-19.465 30.319" fill="#231f20" stroke="#5097ba" stroke-width="8.75" stroke-linecap="round" stroke-miterlimit="10"/><path d="M301.33 122.29l-13.093-9.095" fill="#231f20" stroke="#cd5c5c" stroke-width="8.976" stroke-linecap="round" stroke-miterlimit="10"/><path d="M305.582 122.255l13.679-22.131m-17.816 22.28l26.305 6.049" fill="#231f20" stroke="#cd5c5c" stroke-width="8.75" stroke-linecap="round" stroke-miterlimit="10"/><path d="M100.64 230.164c19.209-13.047 22.304-37.72 23.194-58.99.566-13.543-.109-27.885 2.804-41.178.917-4.185 4.008-13.565 9.338-8.372 3.254 3.17 4.183 9.11 5.154 13.335 5.04 21.917 1.498 49.3 20.929 64.94 8.404 6.763 19.77 6.886 30.045 6.74 12.874-.183 25.724-1.122 38.597-1.194 6.044-.035 6.048-9.41 0-9.375-12.87.072-25.73.925-38.597 1.195-13.019.271-23.714-.998-31.188-12.754-6.8-10.696-6.598-25.165-8.21-37.346-1.322-9.99-2.496-22.949-9.207-31.086-5.541-6.72-14.63-7.424-20.39-.628-7.336 8.655-7.12 22.171-7.725 32.813-1.318 23.19 2.952 58.573-19.475 73.803-4.97 3.377-.285 11.504 4.731 8.097" fill="#cd5c5c"/><path d="M221.223 189.058l11.784 11.782-11.784 11.783" fill="none" stroke="#cd5c5c" stroke-width="8.75" stroke-linecap="round" stroke-linejoin="round" stroke-miterlimit="10"/><path d="M263.447 305.674l9.965 12.231" fill="none" stroke="#6d6e70" stroke-width="6.25" stroke-linecap="round" stroke-linejoin="round" stroke-miterlimit="10"/><path d="M248.214 180.23c0 50.176-40.676 90.852-90.852 90.852-50.177 0-90.852-40.676-90.852-90.853 0-50.175 40.675-90.85 90.852-90.85 50.176 0 90.852 40.675 90.852 90.85z" fill="none" stroke="#6d6e70" stroke-width="10" stroke-miterlimit="10"/><path d="M81.11 91.363c0 5.47-4.434 9.905-9.904 9.905S61.3 96.833 61.3 91.363s4.435-9.905 9.905-9.905 9.905 4.435 9.905 9.905zm55.385-31.854c0 5.47-4.433 9.905-9.905 9.905-5.47 0-9.905-4.435-9.905-9.905s4.435-9.905 9.905-9.905c5.472 0 9.905 4.435 9.905 9.905zm-89.038 86.884c0 5.47-4.435 9.905-9.905 9.905s-9.905-4.435-9.905-9.905 4.435-9.905 9.905-9.905 9.905 4.435 9.905 9.905zm1.25 68.724c0 5.471-4.435 9.905-9.905 9.905s-9.905-4.434-9.905-9.905c0-5.469 4.435-9.905 9.905-9.905s9.905 4.436 9.905 9.905zm30.428 52.288c0 5.469-4.434 9.902-9.906 9.902-5.47 0-9.904-4.433-9.904-9.902 0-5.471 4.434-9.908 9.904-9.908 5.472 0 9.906 4.437 9.906 9.908zm63.54 33.833c0 5.469-4.435 9.902-9.905 9.902s-9.905-4.433-9.905-9.902c0-5.471 4.435-9.908 9.905-9.908s9.905 4.437 9.905 9.908z" fill="none" stroke="#6d6e70" stroke-width="6.25" stroke-miterlimit="10"/><path d="M128.948 69.12l5.483 21.647m-56.229 7.607l15.547 15.703m110.439 145.769l7.273 12.439M47.047 149.201l22.16 6.471M48.301 212.33l20.82-6.483m7.468 54.934l15.927-16.001m42.895 46.917l4.395-22.313" fill="none" stroke="#6d6e70" stroke-width="6.25" stroke-linecap="round" stroke-miterlimit="10"/><path d="M226.675 262.158c-15.784 11.604-15.557 11.179-32.208 18.394m58.947-5.892s-7.311 7.586-18.658 15.242m67.584-70.415l28.44 7.628m-43.596 27.778l25.762 15.153m-85.977-7.888l17.399 20.608m9.388-7.764l31.415 31.414m-50.415-16.514l16.802 24.104m-57.09-33.454l24.829 68.217m26.43-288.852l17.993-23.724m-55.945 3.867s24.59 9.05 37.57 19.98m-37.401-20.494l10.008-27.52m-7.578 68.742L227.6 48.815m-50.662 19.637l11.477-64.341m-11.477 65.083s18.221 3.087 33.217 11.574" fill="none" stroke="#6d6e70" stroke-width="6.25" stroke-linecap="round" stroke-linejoin="round" stroke-miterlimit="10"/><path d="M187.737 94.706l7.262-20.034" fill="none" stroke="#6d6e70" stroke-width="6.25" stroke-linecap="round" stroke-miterlimit="10"/><path d="M304.66 154.25l29.574-5.44m-29.461 57.013l29.461 5.351m-56.294-31.137l28.2.1m-37.845 45.083l27.435 11.032m6.084-16.879s-5.579 21.176-14.686 35.178m-9.806-74.514s.896 21.403-9.028 45.182" fill="none" stroke="#6d6e70" stroke-width="6.25" stroke-linecap="round" stroke-linejoin="round" stroke-miterlimit="10"/><path d="M246.797 197.94l28.107 5.69" fill="none" stroke="#6d6e70" stroke-width="6.25" stroke-linecap="round" stroke-miterlimit="10"/><path d="M304.66 154.363s4.326 32.561 0 51.345" fill="none" stroke="#6d6e70" stroke-width="6.25" stroke-linecap="round" stroke-linejoin="round" stroke-miterlimit="10"/></svg>

<svg xmlns="http://www.w3.org/2000/svg" width="354.325" height="354.325"><path d="M271.871 83.115l28.387-11.401" fill="#231f20" stroke="#cd5c5c" stroke-width="8.75" stroke-linecap="round" stroke-miterlimit="10"/><path d="M262.911 306.125c-.232.27-9.406 7.882-22.362 15.762M240.222 322.078l7.635 13.27" fill="none" stroke="#6d6e70" stroke-width="6.25" stroke-linecap="round" stroke-linejoin="round" stroke-miterlimit="10"/><path d="M236.296 130.905l26.995-19.264M263.72 110.934l17.658-60.26M263.72 110.934l25.11 2.5" fill="#231f20" stroke="#cd5c5c" stroke-width="8.75" stroke-linecap="round" stroke-miterlimit="10"/><path d="M308.295 83.115l-19.465 30.319" fill="#231f20" stroke="#5097ba" stroke-width="8.75" stroke-linecap="round" stroke-miterlimit="10"/><path d="M301.33 122.29l-13.093-9.095" fill="#231f20" stroke="#cd5c5c" stroke-width="8.97625" stroke-linecap="round" stroke-miterlimit="10"/><path d="M305.582 122.255l13.679-22.131M301.445 122.404l26.305 6.049" fill="#231f20" stroke="#cd5c5c" stroke-width="8.75" stroke-linecap="round" stroke-miterlimit="10"/><path d="M100.64 230.164c19.209-13.047 22.304-37.72 23.194-58.99.566-13.543-.109-27.885 2.804-41.178.917-4.185 4.008-13.565 9.338-8.372 3.254 3.17 4.183 9.11 5.154 13.335 5.04 21.917 1.498 49.3 20.929 64.94 8.404 6.763 19.77 6.886 30.045 6.74 12.874-.183 25.724-1.122 38.597-1.194 6.044-.035 6.048-9.41 0-9.375-12.87.072-25.73.925-38.597 1.195-13.019.271-23.714-.998-31.188-12.754-6.8-10.696-6.598-25.165-8.21-37.346-1.322-9.99-2.496-22.949-9.207-31.086-5.541-6.72-14.63-7.424-20.39-.628-7.336 8.655-7.12 22.171-7.725 32.813-1.318 23.19 2.952 58.573-19.475 73.803-4.97 3.377-.285 11.504 4.731 8.097" fill="#cd5c5c"/><path d="M221.223 189.058l11.784 11.782-11.784 11.783" fill="none" stroke="#cd5c5c" stroke-width="8.75" stroke-linecap="round" stroke-linejoin="round" stroke-miterlimit="10"/><path d="M263.447 305.674l9.965 12.231" fill="none" stroke="#6d6e70" stroke-width="6.25" stroke-linecap="round" stroke-linejoin="round" stroke-miterlimit="10"/><path d="M248.214 180.23c0 50.176-40.676 90.852-90.852 90.852-50.177 0-90.852-40.676-90.852-90.853 0-50.175 40.675-90.85 90.852-90.85 50.176 0 90.852 40.675 90.852 90.85z" fill="none" stroke="#6d6e70" stroke-width="10" stroke-miterlimit="10"/><path d="M81.11 91.363c0 5.47-4.434 9.905-9.904 9.905S61.3 96.833 61.3 91.363s4.435-9.905 9.905-9.905 9.905 4.435 9.905 9.905zM136.495 59.509c0 5.47-4.433 9.905-9.905 9.905-5.47 0-9.905-4.435-9.905-9.905s4.435-9.905 9.905-9.905c5.472 0 9.905 4.435 9.905 9.905zM47.457 146.393c0 5.47-4.435 9.905-9.905 9.905s-9.905-4.435-9.905-9.905 4.435-9.905 9.905-9.905 9.905 4.435 9.905 9.905zM48.707 215.117c0 5.471-4.435 9.905-9.905 9.905s-9.905-4.434-9.905-9.905c0-5.469 4.435-9.905 9.905-9.905s9.905 4.436 9.905 9.905zM79.135 267.405c0 5.469-4.434 9.902-9.906 9.902-5.47 0-9.904-4.433-9.904-9.902 0-5.471 4.434-9.908 9.904-9.908 5.472 0 9.906 4.437 9.906 9.908zM142.675 301.238c0 5.469-4.435 9.902-9.905 9.902s-9.905-4.433-9.905-9.902c0-5.471 4.435-9.908 9.905-9.908s9.905 4.437 9.905 9.908z" fill="none" stroke="#6d6e70" stroke-width="6.25" stroke-miterlimit="10"/><path d="M128.948 69.12l5.483 21.647M78.202 98.374l15.547 15.703M204.188 259.846l7.273 12.439M47.047 149.201l22.16 6.471M48.301 212.33l20.82-6.483M76.589 260.781l15.927-16.001M135.411 291.697l4.395-22.313" fill="none" stroke="#6d6e70" stroke-width="6.25" stroke-linecap="round" stroke-miterlimit="10"/><path d="M226.675 262.158c-15.784 11.604-15.557 11.179-32.208 18.394M253.414 274.66s-7.311 7.586-18.658 15.242M302.34 219.487l28.44 7.628M287.184 254.893l25.762 15.153M226.969 262.158l17.399 20.608M253.756 275.002l31.415 31.414M234.756 289.902l16.802 24.104M194.468 280.552l24.829 68.217M245.727 59.917l17.993-23.724M207.775 40.06s24.59 9.05 37.57 19.98M207.944 39.546l10.008-27.52M210.374 80.768L227.6 48.815M176.938 68.452l11.477-64.341M176.938 69.194s18.221 3.087 33.217 11.574" fill="none" stroke="#6d6e70" stroke-width="6.25" stroke-linecap="round" stroke-linejoin="round" stroke-miterlimit="10"/><path d="M187.737 94.706l7.262-20.034" fill="none" stroke="#6d6e70" stroke-width="6.25" stroke-linecap="round" stroke-miterlimit="10"/><path d="M304.66 154.25l29.574-5.44M304.773 205.823l29.461 5.351M277.94 180.037l28.2.1M268.295 225.22l27.435 11.032M301.814 219.373s-5.579 21.176-14.686 35.178M277.322 180.037s.896 21.403-9.028 45.182" fill="none" stroke="#6d6e70" stroke-width="6.25" stroke-linecap="round" stroke-linejoin="round" stroke-miterlimit="10"/><path d="M246.797 197.94l28.107 5.69" fill="none" stroke="#6d6e70" stroke-width="6.25" stroke-linecap="round" stroke-miterlimit="10"/><path d="M304.66 154.363s4.326 32.561 0 51.345" fill="none" stroke="#6d6e70" stroke-width="6.25" stroke-linecap="round" stroke-linejoin="round" stroke-miterlimit="10"/></svg>
